dist/svgs/crypto-icons/icons/sys.svg

<?xml version="1.0" encoding="UTF-8" standalone="yes"?>
<svg xmlns="http://www.w3.org/2000/svg" xmlns:xlink="http://www.w3.org/1999/xlink" width="512px" height="512px" viewBox="0 0 384 384" version="1.1">
  <g id="surface1">
    <path style=" stroke:none;fill-rule:nonzero;fill:rgb(0%,0%,0%);fill-opacity:1;" d="M 208.917969 266 L 208.917969 215.25 C 216.144531 210.15625 220.902344 201.78125 220.902344 192.261719 C 220.902344 176.722656 208.300781 164.117188 192.753906 164.117188 C 177.214844 164.117188 164.613281 176.722656 164.613281 192.261719 C 164.613281 201.550781 169.171875 209.738281 176.121094 214.859375 L 176.121094 268.027344 L 146.476562 306.054688 C 146.476562 306.054688 169.660156 316.460938 192.757812 316.460938 C 215.855469 316.460938 239.191406 306.6875 239.191406 306.6875 Z M 208.917969 266 "/>
    <path style=" stroke:none;fill-rule:nonzero;fill:rgb(0%,0%,0%);fill-opacity:1;" d="M 191.808594 0 C 85.871094 0 0 85.875 0 191.8125 C 0 297.746094 85.875 383.621094 191.8125 383.621094 C 297.75 383.621094 383.625 297.742188 383.625 191.8125 C 383.621094 85.875 297.746094 0 191.808594 0 Z M 192.832031 37.269531 C 198.371094 37.277344 202.855469 41.765625 202.863281 47.300781 C 202.859375 52.839844 198.371094 57.328125 192.832031 57.332031 C 187.300781 57.332031 182.808594 52.828125 182.808594 47.300781 C 182.808594 41.773438 187.300781 37.269531 192.832031 37.269531 Z M 191.808594 370.777344 C 92.96875 370.777344 12.835938 290.660156 12.835938 191.8125 C 12.835938 99.699219 82.429688 23.878906 171.902344 13.976562 L 171.902344 20.097656 C 167.761719 20.867188 164.609375 24.480469 164.609375 28.839844 C 164.617188 33.761719 168.605469 37.746094 173.523438 37.753906 C 178.445312 37.746094 182.429688 33.761719 182.433594 28.839844 C 182.433594 24.480469 179.285156 20.867188 175.144531 20.097656 L 175.144531 13.644531 C 180.101562 13.183594 185.113281 12.933594 190.183594 12.890625 L 190.183594 33 C 183.417969 34.253906 178.265625 40.175781 178.265625 47.300781 C 178.265625 55.335938 184.796875 61.867188 192.832031 61.867188 C 200.871094 61.867188 207.40625 55.335938 207.40625 47.300781 C 207.40625 40.175781 202.253906 34.257812 195.484375 33 L 195.484375 12.941406 C 200.492188 13.039062 205.46875 13.292969 210.367188 13.796875 L 210.367188 20.097656 C 206.230469 20.867188 203.078125 24.480469 203.078125 28.839844 C 203.078125 33.753906 207.074219 37.753906 211.992188 37.753906 C 216.90625 37.753906 220.902344 33.753906 220.902344 28.839844 C 220.902344 24.480469 217.75 20.867188 213.609375 20.097656 L 213.609375 14.214844 C 302.164062 24.976562 370.777344 100.347656 370.777344 191.8125 C 370.777344 290.660156 290.660156 370.777344 191.808594 370.777344 Z M 173.523438 22.703125 C 176.84375 22.800781 179.488281 25.519531 179.488281 28.84375 C 179.488281 32.164062 176.84375 34.886719 173.523438 34.980469 C 170.136719 34.976562 167.390625 32.226562 167.390625 28.839844 C 167.394531 25.453125 170.136719 22.710938 173.523438 22.703125 Z M 211.992188 22.703125 C 215.3125 22.800781 217.957031 25.519531 217.957031 28.84375 C 217.957031 32.164062 215.3125 34.886719 211.992188 34.980469 C 208.601562 34.976562 205.859375 32.226562 205.855469 28.839844 C 205.863281 25.453125 208.605469 22.710938 211.992188 22.703125 Z M 211.992188 22.703125 "/>
    <path style=" stroke:none;fill-rule:nonzero;fill:rgb(0%,0%,0%);fill-opacity:1;" d="M 176.230469 153.277344 L 176.234375 153.277344 C 181.457031 151.058594 187.078125 149.917969 192.753906 149.925781 C 198.480469 149.925781 203.941406 151.078125 208.917969 153.140625 L 208.917969 123.097656 L 264.265625 40.628906 C 253.550781 35.484375 242.179688 31.484375 230.347656 28.699219 L 192.390625 85.261719 L 154.28125 28.46875 C 142.542969 31.144531 131.128906 35.089844 120.242188 40.230469 L 176.230469 123.648438 Z M 176.230469 153.277344 "/>
    <path style=" stroke:none;fill-rule:nonzero;fill:rgb(0%,0%,0%);fill-opacity:1;" d="M 164.613281 223.828125 C 155.925781 216.066406 150.421875 204.820312 150.421875 192.257812 C 150.421875 187.019531 151.417969 182.015625 153.164062 177.382812 L 57.945312 177.382812 C 57.945312 177.382812 60.546875 151.839844 69.296875 131.265625 C 78.046875 110.6875 101.699219 93.660156 101.699219 93.660156 L 130.078125 133.394531 L 130.078125 156.574219 L 164.613281 156.574219 L 164.613281 127.714844 L 108.273438 46.515625 C 58.039062 75.46875 24.191406 129.667969 24.191406 191.808594 C 24.191406 197.480469 24.480469 203.082031 25.03125 208.601562 L 130.550781 208.601562 L 130.550781 252.121094 L 98.859375 290.4375 C 98.859375 290.4375 83.878906 275.296875 74.734375 261.265625 C 65.59375 247.226562 59.28125 222.792969 59.28125 222.792969 L 27.097656 222.792969 C 35.949219 270.140625 64.679688 310.488281 104.328125 334.796875 L 164.613281 259.925781 Z M 358.585938 208.601562 C 359.136719 203.082031 359.421875 197.480469 359.421875 191.8125 C 359.421875 130.230469 326.191406 76.429688 276.703125 47.300781 L 220.902344 127.714844 L 220.902344 156.570312 L 255.4375 156.570312 L 255.4375 133.394531 L 283.8125 93.660156 C 283.8125 93.660156 307.464844 110.6875 316.214844 131.265625 C 324.964844 151.84375 327.570312 177.382812 327.570312 177.382812 L 232.351562 177.382812 C 234.152344 182.136719 235.082031 187.175781 235.089844 192.257812 C 235.089844 204.816406 229.589844 216.066406 220.898438 223.828125 L 220.898438 259.929688 L 280.53125 334 C 319.535156 309.609375 347.757812 269.640625 356.519531 222.796875 L 326.234375 222.796875 C 326.234375 222.796875 319.917969 247.230469 310.777344 261.265625 C 301.636719 275.300781 286.652344 290.4375 286.652344 290.4375 L 254.960938 252.125 L 254.960938 208.601562 Z M 219.195312 330.585938 L 239.761719 330.585938 L 239.761719 319.410156 C 233.066406 322.0625 226.195312 324.246094 219.195312 325.941406 Z M 194.082031 330.585938 L 214.644531 330.585938 L 214.644531 326.964844 C 208.183594 328.292969 201.191406 329.230469 194.082031 329.328125 Z M 194.082031 335.125 L 214.644531 335.125 L 214.644531 345.5625 L 194.082031 345.5625 Z M 219.195312 335.125 L 239.761719 335.125 L 239.761719 345.5625 L 219.195312 345.5625 Z M 244.300781 317.515625 L 244.300781 330.585938 L 257.621094 330.585938 L 246.601562 316.460938 C 246.601562 316.460938 245.757812 316.867188 244.300781 317.515625 Z M 244.300781 335.125 L 244.300781 345.5625 L 258.53125 345.5625 C 261.195312 344.40625 263.835938 343.183594 266.4375 341.894531 L 261.15625 335.125 Z M 116.886719 341.734375 C 119.582031 343.085938 122.316406 344.359375 125.085938 345.5625 L 139.320312 345.5625 L 139.320312 335.125 L 122.320312 335.125 Z M 168.972656 330.585938 L 189.542969 330.585938 L 189.542969 329.269531 C 182.464844 329.019531 175.457031 327.992188 168.972656 326.59375 Z M 219.195312 357.140625 C 226.140625 356.003906 233.011719 354.429688 239.761719 352.433594 L 239.761719 350.097656 L 219.195312 350.097656 Z M 126.046875 330.585938 L 139.320312 330.585938 L 139.320312 317.195312 C 138.757812 316.960938 138.203125 316.714844 137.648438 316.460938 Z M 194.082031 359.355469 C 200.960938 359.265625 207.828125 358.75 214.644531 357.816406 L 214.644531 350.097656 L 194.082031 350.097656 Z M 143.859375 335.125 L 164.429688 335.125 L 164.429688 345.5625 L 143.859375 345.5625 Z M 168.972656 335.125 L 189.542969 335.125 L 189.542969 345.5625 L 168.972656 345.5625 Z M 168.972656 357.816406 C 175.707031 358.742188 182.570312 359.261719 189.542969 359.355469 L 189.542969 350.097656 L 168.972656 350.097656 Z M 143.859375 330.585938 L 164.429688 330.585938 L 164.429688 325.546875 C 157.441406 323.8125 150.570312 321.640625 143.859375 319.042969 Z M 143.859375 352.417969 C 150.609375 354.425781 157.476562 356 164.429688 357.136719 L 164.429688 350.097656 L 143.859375 350.097656 Z M 143.859375 352.417969 "/>
  </g>
</svg>

<svg xmlns="http://www.w3.org/2000/svg" viewBox="0 0 384 384"><path d="M208.918 266v-50.75c7.227-5.094 11.984-13.469 11.984-22.988 0-15.54-12.601-28.145-28.148-28.145-15.54 0-28.14 12.606-28.14 28.145 0 9.289 4.558 17.476 11.507 22.597v53.168l-29.644 38.028s23.183 10.406 46.28 10.406c23.098 0 46.434-9.774 46.434-9.774zm0 0"/><path d="M191.809 0C85.87 0 0 85.875 0 191.813 0 297.745 85.875 383.62 191.813 383.62c105.937 0 191.812-85.879 191.812-191.808C383.621 85.874 297.746 0 191.809 0zm1.023 37.27c5.54.007 10.023 4.496 10.031 10.03-.004 5.54-4.492 10.028-10.031 10.032-5.531 0-10.023-4.504-10.023-10.031 0-5.528 4.492-10.031 10.023-10.031zm-1.023 333.507c-98.84 0-178.973-80.117-178.973-178.964 0-92.114 69.594-167.934 159.066-177.836v6.12c-4.14.77-7.293 4.383-7.293 8.743a8.928 8.928 0 008.914 8.914 8.92 8.92 0 008.91-8.914c0-4.36-3.148-7.973-7.288-8.742v-6.453c4.957-.461 9.968-.711 15.039-.754V33c-6.766 1.254-11.918 7.176-11.918 14.3 0 8.036 6.53 14.567 14.566 14.567 8.04 0 14.574-6.531 14.574-14.566 0-7.125-5.152-13.043-11.922-14.301V12.941c5.008.098 9.985.352 14.883.856v6.3c-4.137.77-7.289 4.383-7.289 8.743 0 4.914 3.996 8.914 8.914 8.914 4.914 0 8.91-4 8.91-8.914 0-4.36-3.152-7.973-7.293-8.742v-5.883c88.555 10.762 157.168 86.133 157.168 177.597 0 98.848-80.117 178.965-178.968 178.965zM173.523 22.703a6.141 6.141 0 010 12.277 6.142 6.142 0 01-6.132-6.14 6.144 6.144 0 016.132-6.137zm38.47 0a6.141 6.141 0 010 12.277 6.146 6.146 0 01-6.138-6.14 6.15 6.15 0 016.137-6.137zm0 0"/><path d="M176.23 153.277h.004a42.108 42.108 0 0116.52-3.351 42.135 42.135 0 0116.164 3.215v-30.043l55.348-82.47c-10.715-5.144-22.086-9.144-33.918-11.929L192.39 85.262l-38.11-56.793a166.273 166.273 0 00-34.039 11.761l55.988 83.418zm0 0"/><path d="M164.613 223.828c-8.687-7.762-14.191-19.008-14.191-31.57 0-5.238.996-10.242 2.742-14.875H57.945s2.602-25.543 11.352-46.117c8.75-20.578 32.402-37.606 32.402-37.606l28.38 39.735v23.18h34.534v-28.86l-56.34-81.2C58.04 75.47 24.191 129.669 24.191 191.81c0 5.671.29 11.273.84 16.793h105.52v43.52l-31.692 38.315s-14.98-15.14-24.125-29.171c-9.14-14.04-15.453-38.473-15.453-38.473H27.098c8.851 47.348 37.582 87.695 77.23 112.004l60.285-74.871zm193.973-15.226c.55-5.52.836-11.122.836-16.79 0-61.582-33.23-115.382-82.719-144.511l-55.8 80.414v28.855h34.535v-23.175l28.375-39.735s23.652 17.028 32.402 37.606c8.75 20.578 11.355 46.117 11.355 46.117h-95.218a42.177 42.177 0 012.738 14.875c0 12.558-5.5 23.808-14.192 31.57v36.102L280.531 334c39.004-24.39 67.227-64.36 75.989-111.203h-30.286s-6.316 24.433-15.457 38.469c-9.14 14.035-24.125 29.171-24.125 29.171l-31.691-38.312v-43.523zm-139.39 121.984h20.566V319.41a154.726 154.726 0 01-20.567 6.531zm-25.114 0h20.563v-3.621c-6.461 1.328-13.454 2.265-20.563 2.363zm0 4.539h20.563v10.438h-20.563zm25.113 0h20.567v10.438h-20.567zm25.106-17.61v13.07h13.32l-11.02-14.124s-.843.406-2.3 1.055zm0 17.61v10.438h14.23a172.535 172.535 0 007.906-3.668l-5.28-6.77zm-127.414 6.61a164.552 164.552 0 008.199 3.827h14.234v-10.437h-17zm52.086-11.15h20.57v-1.315c-7.078-.25-14.086-1.278-20.57-2.676zm50.222 26.556a168.53 168.53 0 0020.567-4.707v-2.336h-20.567zm-93.148-26.555h13.273v-13.39a52.87 52.87 0 01-1.672-.735zm68.035 28.77c6.879-.09 13.746-.606 20.563-1.54v-7.718h-20.563zm-50.223-24.231h20.57v10.438h-20.57zm25.114 0h20.57v10.438h-20.57zm0 22.691a167.511 167.511 0 0020.57 1.54v-9.258h-20.57zm-25.114-27.23h20.57v-5.04a171.275 171.275 0 01-20.57-6.503zm0 21.832a166.155 166.155 0 0020.57 4.719v-7.04h-20.57zm0 0"/></svg>
